image/ig.svg

<svg fill="none" height="109" viewBox="0 0 117 109" width="117" xmlns="http://www.w3.org/2000/svg" xmlns:xlink="http://www.w3.org/1999/xlink"><clipPath id="a"><path d="m27 22h60v63h-60z"/></clipPath><g clip-path="url(#a)" fill="#ff4d00"><path d="m59.1209 22.0644c3.0756.101 8.095-.3583 13.0799.2756 7.8358 1.0015 13.1663 6.2568 14.0043 14.5809 1.054 10.5291 1.0022 21.15.1296 31.6699-.8467 10.1892-6.7041 15.5824-16.2419 16.0509-9.0108.4411-18.0302.5054-27.041 0-8.9763-.5145-14.6609-6.367-15.4903-16.7032-.8121-10.0789-.7516-20.2221.2246-30.2826.9158-9.4909 7.162-15.2975 16.216-15.564 4.3974-.1286 8.8034-.0183 15.1188-.0183zm-1.6242 5.0532v.0551c-4.1296 0-8.2592-.1102-12.3801.0276-3.7668.1286-7.5162.5053-10.0908 4.1069-2.1943 3.0595-2.6954 6.6703-2.7559 10.281-.1382 8.5262-.1555 17.0616-.0086 25.5969.1209 7.2951 4.5874 12.1002 11.4384 12.3575 8.7948.3215 17.5896.6247 26.3845 0 3.3434-.2389 6.5658-.8085 8.8466-3.8864 1.7106-2.3061 2.419-4.9706 2.6436-7.7912.7171-9.0407.3629-18.1089.1815-27.1496-.1815-9.2428-4.5011-13.3865-13.2095-13.5886-3.6804-.0827-7.3694-.0184-11.0583-.0184z"/><path d="m71.5097 53.4954c-.0345 8.7191-6.7559 15.7844-14.9805 15.7477-8.1037-.0368-14.8337-7.1756-14.8424-15.7661-.0086-8.7559 6.8078-15.9958 15.0324-15.959 8.1383.0367 14.8337 7.2582 14.7992 15.9774zm-4.7084-.1562c-.0173-6.1742-4.4924-11.0896-10.0993-11.0804-5.6847 0-10.2895 4.9981-10.2722 11.1539.0173 6.1557 4.648 11.1079 10.3326 11.0803 5.5983-.0367 10.0562-4.9797 10.0303-11.1446z"/><path d="m72.4342 40.1089c-1.7452.0276-3.3607-1.6813-3.378-3.5648-.0086-1.957 1.4773-3.5832 3.3002-3.6016 1.8315-.0183 3.3348 1.5619 3.378 3.5281.0345 1.8651-1.5465 3.62-3.3002 3.6383z"/></g></svg>

<svg width="117" height="109" viewBox="0 0 117 109" fill="none" xmlns="http://www.w3.org/2000/svg">
<g clip-path="url(#clip0_209_2274)">
<path d="M59.1209 22.0644C62.1965 22.1654 67.2159 21.7061 72.2008 22.34C80.0366 23.3415 85.3671 28.5968 86.2051 36.9209C87.2591 47.45 87.2073 58.0709 86.3347 68.5908C85.488 78.78 79.6306 84.1732 70.0928 84.6417C61.082 85.0828 52.0626 85.1471 43.0518 84.6417C34.0755 84.1272 28.3909 78.2747 27.5615 67.9385C26.7494 57.8596 26.8099 47.7164 27.7861 37.6559C28.7019 28.165 34.9481 22.3584 44.0021 22.0919C48.3995 21.9633 52.8055 22.0736 59.1209 22.0736V22.0644ZM57.4967 27.1176V27.1727C53.3671 27.1727 49.2375 27.0625 45.1166 27.2003C41.3498 27.3289 37.6004 27.7056 35.0258 31.3072C32.8315 34.3667 32.3304 37.9775 32.2699 41.5882C32.1317 50.1144 32.1144 58.6498 32.2613 67.1851C32.3822 74.4802 36.8487 79.2853 43.6997 79.5426C52.4945 79.8641 61.2893 80.1673 70.0842 79.5426C73.4276 79.3037 76.65 78.7341 78.9308 75.6562C80.6414 73.3501 81.3498 70.6856 81.5744 67.865C82.2915 58.8243 81.9373 49.7561 81.7559 40.7154C81.5744 31.4726 77.2548 27.3289 68.5464 27.1268C64.866 27.0441 61.177 27.1084 57.4881 27.1084L57.4967 27.1176Z" fill="#FF4D00"/>
<path d="M71.5097 53.4954C71.4752 62.2145 64.7538 69.2798 56.5292 69.2431C48.4255 69.2063 41.6955 62.0675 41.6868 53.477C41.6782 44.7211 48.4946 37.4812 56.7192 37.518C64.8575 37.5547 71.5529 44.7762 71.5184 53.4954H71.5097ZM66.8013 53.3392C66.784 47.165 62.3089 42.2496 56.702 42.2588C51.0173 42.2588 46.4125 47.2569 46.4298 53.4127C46.4471 59.5684 51.0778 64.5206 56.7624 64.493C62.3607 64.4563 66.8186 59.5133 66.7927 53.3484L66.8013 53.3392Z" fill="#FF4D00"/>
<path d="M72.4342 40.1089C70.689 40.1365 69.0735 38.4276 69.0562 36.5441C69.0476 34.5871 70.5335 32.9609 72.3564 32.9425C74.1879 32.9242 75.6912 34.5044 75.7344 36.4706C75.7689 38.3357 74.1879 40.0906 72.4342 40.1089V40.1089Z" fill="#FF4D00"/>
</g>
<defs>
<clipPath id="clip0_209_2274">
<rect width="60" height="63" fill="white" transform="translate(27 22)"/>
</clipPath>
</defs>
</svg>
